X: 19365
T: Jack's Health
R: jig
M: 6/8
K: Aminor
|:g2f|"Am"ecAA2B|"Em"G2EE2B|"Am"c2A"Em"B2G|"Am"A2Bc2d|
ecAA2B|"Em"G2EE2B|"Am"c2A "Em"BAG|"Am"A3:|
A2B|"Am"cBA"G"G2d|"Em"e3d2B|"Am"c2A"G"B2G|"Am"A2Bc2d|
"Am"cBA"G"G2d|"Em"e3d2B|"Am"c2A"G"B2A|G3g2e|
"G"dBGG2d|"Em"e3d2B|"Am"c2A"G"B2G|"Am"A2B GBd|
"Am"ecAA2d|"Em"e2a"D"a2^f|"C"g2e"D"d2B|"Am"e2A A3||

